img/google-play.svg

<svg width="24" height="24" viewBox="0 0 24 24" fill="none" xmlns="http://www.w3.org/2000/svg">
<g clip-path="url(#clip0_12_438)">
<path d="M21.333 14.0609C22.8885 13.1459 22.8885 10.8554 21.333 9.93894L17.292 7.55994L12.48 11.9999L17.2905 16.4399L21.3315 14.0609H21.333ZM15.9405 17.2349L11.3745 13.0199L1.545 22.0949C1.8465 23.6384 3.585 24.5099 4.9995 23.6774L15.9405 17.2349ZM1.5 20.0939V3.90444L10.269 11.9999L1.5 20.0939ZM1.545 1.90494L11.3745 10.9799L15.9405 6.76494L4.9995 0.322444C3.585 -0.511556 1.8465 0.359944 1.545 1.90494Z" fill="#1772F8"/>
</g>
<defs>
<clipPath id="clip0_12_438">
<rect width="24" height="24" fill="white"/>
</clipPath>
</defs>
</svg>

<svg width="24" height="24" fill="none" xmlns="http://www.w3.org/2000/svg"><g clip-path="url(#a)"><path d="M21.333 14.06c1.556-.914 1.556-3.205 0-4.121l-4.041-2.38L12.48 12l4.81 4.44 4.041-2.378h.002zm-5.392 3.175-4.567-4.215-9.829 9.075c.302 1.543 2.04 2.415 3.455 1.582l10.94-6.442zM1.5 20.094V3.904L10.269 12 1.5 20.094zm.045-18.19 9.83 9.076 4.566-4.215L5 .322C3.585-.512 1.846.36 1.545 1.905z" fill="#1772F8"/></g><defs><clipPath id="a"><path fill="#fff" d="M0 0h24v24H0z"/></clipPath></defs></svg>
